img/audit_service.svg

<?xml version="1.0" encoding="utf-8"?>
<!-- Generator: Adobe Illustrator 25.3.1, SVG Export Plug-In . SVG Version: 6.00 Build 0)  -->
<svg version="1.1" id="Layer_1" xmlns="http://www.w3.org/2000/svg" xmlns:xlink="http://www.w3.org/1999/xlink" x="0px" y="0px"
	 viewBox="0 0 1024 768" style="enable-background:new 0 0 1024 768;" xml:space="preserve">
<style type="text/css">
	.st0{fill:#075985;}
	.st1{fill:#FFDE16;stroke:#000000;stroke-miterlimit:10;}
	.st2{fill:none;stroke:#FACC15;stroke-width:5;stroke-miterlimit:10;}
	.st3{fill:#FFFFFF;}
	.st4{opacity:0.12;}
	.st5{fill:none;}
</style>
<path class="st0" d="M1024,0v647.1c-38.3-1.6-79.4,48.6-114.3,40c-72-17.7-45.9-96.4-92-111.8C736.3,547.9,758,676.7,633.2,714
	c-136.8,27.8-243.5-91.1-270.7-14c-20.5,58.2-60.7,84.7-140.8,52.7C134,717.7,128,652.3,0,721.1V0H1024z"/>
<path class="st1" d="M717.1-512.5"/>
<path class="st1" d="M952.9-512.1"/>
<path class="st2" d="M0,305.4c44.2,19.6,66,14.8,76-4.3c10.6-20.4,7.1-57,3.2-96.8C75,161,70.4,113.9,83.4,80.4
	c17-44.1,64.9-64.5,185.7-21c32.8,11.9,67,22,101.5,29.6c82.2,18.1,166.1,21.8,237.4,0.3C659.3,73.9,704,45.4,737.1,0"/>
<path class="st1" d="M419.2-298.8"/>
<path class="st1" d="M422.1-394"/>
<path class="st1" d="M426.4-519.1"/>
<path class="st1" d="M616-541.9"/>
<g>
	<path class="st3" d="M576.6,578.7l-119-119l2.8-3.2c19.3-21.9,29.9-49.9,29.9-79c0-15.2-2.8-30-8.4-44l-0.6-1.6l36.2-95.4
		c0.5-1.2,0.2-2.5-0.7-3.4s-2.3-1.2-3.5-0.8l-97.2,36.9l-2-2.5c-0.4-0.5-0.8-0.8-1.3-1c-13.4-5-27.4-7.5-41.8-7.5
		c-65.9,0-119.5,53.6-119.5,119.5c0,22.5,6.3,44.5,18.4,63.5l1.9,3l-138,138c-0.6,0.6-0.9,1.4-0.9,2.3c0,0.9,0.3,1.7,0.9,2.3
		c1.2,1.2,3.4,1.2,4.6,0l137.2-137.2l3.2,3.8c5.3,6.5,11.5,12.5,18.2,17.8l4,3.1l-164,164c-0.6,0.6-1,1.4-1,2.3s0.3,1.7,1,2.3
		c1.2,1.2,3.4,1.2,4.6,0l164.8-164.8l3,1.8c18.6,11.2,39.9,17.2,61.7,17.2c29.1,0,57.1-10.6,79-29.9l3.2-2.8l119,119
		c1.2,1.2,3.4,1.2,4.6,0c0.6-0.6,1-1.4,1-2.3C577.5,580.2,577.2,579.4,576.6,578.7z M370.9,490.6c-62.3,0-113-50.7-113-113
		s50.7-113,113-113c8.8,0,17.5,1,26,3l14.3,3.4l-56.3,21.3c-1,0.4-1.8,1.3-2,2.3c-0.2,1.1,0.1,2.2,0.9,3l32.2,32.2l-85.8,85.8
		c-0.6,0.6-1,1.4-1,2.3s0.3,1.7,1,2.3c1.3,1.3,3.3,1.3,4.6,0l88.1-88.1c0.6-0.6,1-1.4,1-2.3s-0.3-1.7-1-2.3L362,296.6L508.8,241
		l-55.7,146.9l-30.7-30.7c-1.3-1.3-3.3-1.3-4.6,0l-90.4,90.4c-0.6,0.6-1,1.4-1,2.3s0.3,1.7,1,2.3c1.2,1.2,3.4,1.2,4.6,0l88.1-88.1
		L452,396c0.8,0.8,1.9,1.1,3,0.9s2-1,2.4-2l21-55.3l3.1,15.2c1.5,7.5,2.3,15.2,2.3,22.8C483.9,439.9,433.2,490.6,370.9,490.6z"/>
	<path class="st3" d="M453.8,513.7L336.6,631c-1.2,1.2-3.4,1.2-4.6,0c-0.6-0.6-1-1.4-1-2.3s0.3-1.7,1-2.3l117.2-117.2
		c0.6-0.6,1.5-1,2.3-1s1.7,0.3,2.3,1C455.1,510.4,455.1,512.5,453.8,513.7z"/>
	<path class="st3" d="M485.4,542.1c0,0.9-0.3,1.7-0.9,2.3l-42.8,42.8c-1.2,1.2-3.4,1.2-4.6,0c-0.6-0.6-1-1.4-1-2.3
		c0-0.9,0.3-1.7,1-2.3l42.8-42.8c1.2-1.2,3.4-1.2,4.6,0C485,540.4,485.4,541.2,485.4,542.1z"/>
	<path class="st3" d="M586.7,442.1l-42.8,42.8c-1.2,1.2-3.4,1.2-4.6,0c-1.3-1.3-1.3-3.3,0-4.6l42.8-42.8c1.3-1.3,3.3-1.3,4.6,0
		S588,440.8,586.7,442.1z"/>
	<path class="st3" d="M313.8,171.3c0,0.9-0.3,1.7-1,2.3L257,229.5c-1.2,1.2-3.4,1.2-4.6,0c-0.6-0.6-1-1.4-1-2.3c0-0.9,0.3-1.7,1-2.3
		l55.9-55.9c0.6-0.6,1.4-1,2.3-1s1.7,0.3,2.3,1C313.5,169.6,313.8,170.4,313.8,171.3z"/>
	<path class="st3" d="M191,294.2c0,0.9-0.3,1.7-1,2.3L148.5,338c-1.2,1.2-3.4,1.2-4.6,0c-0.6-0.6-1-1.4-1-2.3s0.3-1.7,1-2.3
		l41.5-41.5c0.6-0.6,1.5-0.9,2.3-0.9s1.7,0.3,2.3,0.9C190.6,292.5,191,293.3,191,294.2z"/>
	<path class="st3" d="M232.3,252.8c0,0.9-0.3,1.7-1,2.3l-15.7,15.7c-1.2,1.2-3.4,1.2-4.6,0c-1.3-1.3-1.3-3.3,0-4.6l15.7-15.7
		c0.6-0.6,1.4-0.9,2.3-0.9s1.7,0.3,2.3,0.9C232,251.2,232.3,252,232.3,252.8z"/>
	<path class="st3" d="M224.5,420.2c0,0.9-0.3,1.7-1,2.3l-78.2,78.2c-1.2,1.2-3.4,1.2-4.6,0c-0.6-0.6-1-1.4-1-2.3s0.3-1.7,1-2.3
		l78.2-78.2c0.6-0.6,1.4-1,2.3-1c0.9,0,1.7,0.3,2.3,1C224.1,418.5,224.5,419.3,224.5,420.2z"/>
	<path class="st3" d="M496.1,148.5c0,0.9-0.3,1.7-0.9,2.3l-56.7,56.7c-1.2,1.2-3.4,1.2-4.6,0c-0.6-0.6-1-1.4-1-2.3
		c0-0.9,0.3-1.7,1-2.3l56.7-56.7c1.3-1.3,3.3-1.3,4.6,0C495.8,146.8,496.1,147.7,496.1,148.5z"/>
	<path class="st3" d="M620.1,272.5c0,0.9-0.3,1.7-1,2.3l-8.5,8.5c-1.2,1.2-3.4,1.2-4.6,0c-0.6-0.6-1-1.4-1-2.3s0.3-1.7,1-2.3
		l8.5-8.5c0.6-0.6,1.4-1,2.3-1s1.7,0.3,2.3,1C619.8,270.8,620.1,271.6,620.1,272.5z"/>
	<path class="st3" d="M584.4,309.5l-51,51c-1.2,1.2-3.4,1.2-4.6,0c-0.6-0.6-0.9-1.4-0.9-2.3s0.3-1.7,0.9-2.3l51-51
		c0.6-0.6,1.4-1,2.3-1s1.7,0.3,2.3,1C585.7,306.2,585.7,308.2,584.4,309.5z"/>
	<path class="st3" d="M363.6,528.7c0,0.9-0.3,1.7-1,2.3l-8.6,8.6c-1.2,1.2-3.4,1.2-4.6,0c-1.3-1.3-1.3-3.3,0-4.6l8.6-8.6
		c0.6-0.6,1.4-0.9,2.3-0.9s1.7,0.3,2.3,0.9C363.3,527,363.6,527.8,363.6,528.7z"/>
	<path class="st3" d="M327.7,564.6c0,0.9-0.3,1.7-1,2.3L266.6,627c-1.2,1.2-3.4,1.2-4.6,0c-0.6-0.6-1-1.4-1-2.3s0.3-1.7,1-2.3
		l60.1-60.1c0.6-0.6,1.4-1,2.3-1s1.7,0.3,2.3,1C327.3,563,327.7,563.8,327.7,564.6z"/>
	<path class="st3" d="M229.6,358.2c0,0.9-0.3,1.7-1,2.3l-53.2,53.2c-1.2,1.2-3.4,1.2-4.6,0c-0.6-0.6-1-1.4-1-2.3s0.3-1.7,1-2.3
		l53.2-53.2c0.6-0.6,1.4-0.9,2.3-0.9s1.7,0.3,2.3,0.9C229.3,356.5,229.6,357.4,229.6,358.2z"/>
	<path class="st3" d="M150.3,439l-5,5c-1.2,1.2-3.4,1.2-4.6,0c-0.6-0.6-1-1.4-1-2.3s0.3-1.7,1-2.3l5-5c0.6-0.6,1.5-0.9,2.3-0.9
		s1.7,0.3,2.3,0.9C151.5,435.6,151.5,437.7,150.3,439z"/>
	<path class="st3" d="M409.5,178.3c0,0.9-0.3,1.7-1,2.3L385.1,204c-1.2,1.2-3.4,1.2-4.6,0c-0.6-0.6-1-1.4-1-2.3s0.3-1.7,1-2.3
		L404,176c0.6-0.6,1.5-0.9,2.3-0.9s1.7,0.3,2.3,0.9C409.2,176.7,409.5,177.5,409.5,178.3z"/>
	<path class="st3" d="M365.1,224.1l-5,5c-1.2,1.2-3.4,1.2-4.6,0c-0.6-0.6-1-1.4-1-2.3c0-0.9,0.3-1.7,1-2.3l5-5c0.6-0.6,1.5-1,2.3-1
		s1.7,0.3,2.3,1C366.4,220.8,366.4,222.8,365.1,224.1z"/>
	<path class="st3" d="M433.3,155.9l-5,5c-1.2,1.2-3.4,1.2-4.6,0c-1.3-1.3-1.3-3.3,0-4.6l5-5c0.6-0.6,1.5-1,2.3-1s1.7,0.3,2.3,1
		C434.5,152.6,434.5,154.7,433.3,155.9z"/>
</g>
<g>
	<g class="st4">
		<rect x="812.7" y="36.4" width="115.8" height="25.7"/>
		<path d="M960.3,267.5v25.9c-65.8,2-128.9,25.1-179.6,66.5C825.8,306.2,890.3,273.5,960.3,267.5z"/>
		<path d="M921.8,113.5v143.2c-8.7,2.5-17.2,5.4-25.6,8.9V139.2h-12.8v132.2c-8.8,4.3-17.4,9.2-25.6,14.7V139.2h-12.8v156.1
			c-9.2,7-17.7,14.6-25.6,22.8V113.5H921.8z"/>
		<path d="M986.4,113.9c0,21.5-17.4,38.9-38.8,38.9v-25.7c7.3,0,13.2-5.9,13.2-13.2s-5.9-13.2-13.2-13.2H793.6
			c-7.3,0-13.2,5.9-13.2,13.2s5.9,13.2,13.2,13.2v25.7c-21.5,0-38.8-17.4-38.8-38.9S772.1,75,793.6,75c94.3,0,59.6,0,153.9,0
			C969,74.9,986.4,92.4,986.4,113.9z"/>
	</g>
	<rect x="717.1" class="st5" width="306.9" height="396.3"/>
</g>
</svg>

<svg width="800" height="800" viewBox="0 0 800 800" fill="none" xmlns="http://www.w3.org/2000/svg">
<g clip-path="url(#clip0_1_284)">
<path d="M800 0V675.438C770.078 673.768 737.969 726.167 710.703 717.19C654.453 698.715 674.844 616.568 638.828 600.494C575.234 571.894 592.188 706.335 494.688 745.268C387.813 774.286 304.453 650.179 283.203 730.655C267.188 791.404 235.781 819.064 173.203 785.663C104.688 749.13 100 680.866 0 752.679V0H800Z" fill="#226679"/>
<path d="M0 305.4C44.2 325 66 320.2 76 301.1C86.6 280.7 83.1 244.1 79.2 204.3C75 161 70.4 113.9 83.4 80.4C100.4 36.3 148.3 15.9 269.1 59.4C301.9 71.3 336.1 81.4 370.6 89C452.8 107.1 536.7 110.8 608 89.3C659.3 73.9 704 45.4 737.1 0" stroke="#FACC15" stroke-width="5" stroke-miterlimit="10"/>
<path d="M576.6 578.7L457.6 459.7L460.4 456.5C479.7 434.6 490.3 406.6 490.3 377.5C490.3 362.3 487.5 347.5 481.9 333.5L481.3 331.9L517.5 236.5C518 235.3 517.7 234 516.8 233.1C515.9 232.2 514.5 231.9 513.3 232.3L416.1 269.2L414.1 266.7C413.7 266.2 413.3 265.9 412.8 265.7C399.4 260.7 385.4 258.2 371 258.2C305.1 258.2 251.5 311.8 251.5 377.7C251.5 400.2 257.8 422.2 269.9 441.2L271.8 444.2L133.8 582.2C133.2 582.8 132.9 583.6 132.9 584.5C132.9 585.4 133.2 586.2 133.8 586.8C135 588 137.2 588 138.4 586.8L275.6 449.6L278.8 453.4C284.1 459.9 290.3 465.9 297 471.2L301 474.3L137 638.3C136.4 638.9 136 639.7 136 640.6C136 641.5 136.3 642.3 137 642.9C138.2 644.1 140.4 644.1 141.6 642.9L306.4 478.1L309.4 479.9C328 491.1 349.3 497.1 371.1 497.1C400.2 497.1 428.2 486.5 450.1 467.2L453.3 464.4L572.3 583.4C573.5 584.6 575.7 584.6 576.9 583.4C577.5 582.8 577.9 582 577.9 581.1C577.5 580.2 577.2 579.4 576.6 578.7ZM370.9 490.6C308.6 490.6 257.9 439.9 257.9 377.6C257.9 315.3 308.6 264.6 370.9 264.6C379.7 264.6 388.4 265.6 396.9 267.6L411.2 271L354.9 292.3C353.9 292.7 353.1 293.6 352.9 294.6C352.7 295.7 353 296.8 353.8 297.6L386 329.8L300.2 415.6C299.6 416.2 299.2 417 299.2 417.9C299.2 418.8 299.5 419.6 300.2 420.2C301.5 421.5 303.5 421.5 304.8 420.2L392.9 332.1C393.5 331.5 393.9 330.7 393.9 329.8C393.9 328.9 393.6 328.1 392.9 327.5L362 296.6L508.8 241L453.1 387.9L422.4 357.2C421.1 355.9 419.1 355.9 417.8 357.2L327.4 447.6C326.8 448.2 326.4 449 326.4 449.9C326.4 450.8 326.7 451.6 327.4 452.2C328.6 453.4 330.8 453.4 332 452.2L420.1 364.1L452 396C452.8 396.8 453.9 397.1 455 396.9C456.1 396.7 457 395.9 457.4 394.9L478.4 339.6L481.5 354.8C483 362.3 483.8 370 483.8 377.6C483.9 439.9 433.2 490.6 370.9 490.6Z" fill="white"/>
<path d="M453.8 513.7L336.6 631C335.4 632.2 333.2 632.2 332 631C331.4 630.4 331 629.6 331 628.7C331 627.8 331.3 627 332 626.4L449.2 509.2C449.8 508.6 450.7 508.2 451.5 508.2C452.3 508.2 453.2 508.5 453.8 509.2C455.1 510.4 455.1 512.5 453.8 513.7Z" fill="white"/>
<path d="M485.4 542.1C485.4 543 485.1 543.8 484.5 544.4L441.7 587.2C440.5 588.4 438.3 588.4 437.1 587.2C436.5 586.6 436.1 585.8 436.1 584.9C436.1 584 436.4 583.2 437.1 582.6L479.9 539.8C481.1 538.6 483.3 538.6 484.5 539.8C485 540.4 485.4 541.2 485.4 542.1Z" fill="white"/>
<path d="M586.7 442.1L543.9 484.9C542.7 486.1 540.5 486.1 539.3 484.9C538 483.6 538 481.6 539.3 480.3L582.1 437.5C583.4 436.2 585.4 436.2 586.7 437.5C588 438.8 588 440.8 586.7 442.1Z" fill="white"/>
<path d="M313.8 171.3C313.8 172.2 313.5 173 312.8 173.6L257 229.5C255.8 230.7 253.6 230.7 252.4 229.5C251.8 228.9 251.4 228.1 251.4 227.2C251.4 226.3 251.7 225.5 252.4 224.9L308.3 169C308.9 168.4 309.7 168 310.6 168C311.5 168 312.3 168.3 312.9 169C313.5 169.6 313.8 170.4 313.8 171.3Z" fill="white"/>
<path d="M191 294.2C191 295.1 190.7 295.9 190 296.5L148.5 338C147.3 339.2 145.1 339.2 143.9 338C143.3 337.4 142.9 336.6 142.9 335.7C142.9 334.8 143.2 334 143.9 333.4L185.4 291.9C186 291.3 186.9 291 187.7 291C188.5 291 189.4 291.3 190 291.9C190.6 292.5 191 293.3 191 294.2Z" fill="white"/>
<path d="M232.3 252.8C232.3 253.7 232 254.5 231.3 255.1L215.6 270.8C214.4 272 212.2 272 211 270.8C209.7 269.5 209.7 267.5 211 266.2L226.7 250.5C227.3 249.9 228.1 249.6 229 249.6C229.9 249.6 230.7 249.9 231.3 250.5C232 251.2 232.3 252 232.3 252.8Z" fill="white"/>
<path d="M224.5 420.2C224.5 421.1 224.2 421.9 223.5 422.5L145.3 500.7C144.1 501.9 141.9 501.9 140.7 500.7C140.1 500.1 139.7 499.3 139.7 498.4C139.7 497.5 140 496.7 140.7 496.1L218.9 417.9C219.5 417.3 220.3 416.9 221.2 416.9C222.1 416.9 222.9 417.2 223.5 417.9C224.1 418.5 224.5 419.3 224.5 420.2Z" fill="white"/>
<path d="M496.1 148.5C496.1 149.4 495.8 150.2 495.2 150.8L438.5 207.5C437.3 208.7 435.1 208.7 433.9 207.5C433.3 206.9 432.9 206.1 432.9 205.2C432.9 204.3 433.2 203.5 433.9 202.9L490.6 146.2C491.9 144.9 493.9 144.9 495.2 146.2C495.8 146.8 496.1 147.7 496.1 148.5Z" fill="white"/>
<path d="M620.1 272.5C620.1 273.4 619.8 274.2 619.1 274.8L610.6 283.3C609.4 284.5 607.2 284.5 606 283.3C605.4 282.7 605 281.9 605 281C605 280.1 605.3 279.3 606 278.7L614.5 270.2C615.1 269.6 615.9 269.2 616.8 269.2C617.7 269.2 618.5 269.5 619.1 270.2C619.8 270.8 620.1 271.6 620.1 272.5Z" fill="white"/>
<path d="M584.4 309.5L533.4 360.5C532.2 361.7 530 361.7 528.8 360.5C528.2 359.9 527.9 359.1 527.9 358.2C527.9 357.3 528.2 356.5 528.8 355.9L579.8 304.9C580.4 304.3 581.2 303.9 582.1 303.9C583 303.9 583.8 304.2 584.4 304.9C585.7 306.2 585.7 308.2 584.4 309.5Z" fill="white"/>
<path d="M363.6 528.7C363.6 529.6 363.3 530.4 362.6 531L354 539.6C352.8 540.8 350.6 540.8 349.4 539.6C348.1 538.3 348.1 536.3 349.4 535L358 526.4C358.6 525.8 359.4 525.5 360.3 525.5C361.2 525.5 362 525.8 362.6 526.4C363.3 527 363.6 527.8 363.6 528.7Z" fill="white"/>
<path d="M327.7 564.6C327.7 565.5 327.4 566.3 326.7 566.9L266.6 627C265.4 628.2 263.2 628.2 262 627C261.4 626.4 261 625.6 261 624.7C261 623.8 261.3 623 262 622.4L322.1 562.3C322.7 561.7 323.5 561.3 324.4 561.3C325.3 561.3 326.1 561.6 326.7 562.3C327.3 563 327.7 563.8 327.7 564.6Z" fill="white"/>
<path d="M229.6 358.2C229.6 359.1 229.3 359.9 228.6 360.5L175.4 413.7C174.2 414.9 172 414.9 170.8 413.7C170.2 413.1 169.8 412.3 169.8 411.4C169.8 410.5 170.1 409.7 170.8 409.1L224 355.9C224.6 355.3 225.4 355 226.3 355C227.2 355 228 355.3 228.6 355.9C229.3 356.5 229.6 357.4 229.6 358.2Z" fill="white"/>
<path d="M150.3 439L145.3 444C144.1 445.2 141.9 445.2 140.7 444C140.1 443.4 139.7 442.6 139.7 441.7C139.7 440.8 140 440 140.7 439.4L145.7 434.4C146.3 433.8 147.2 433.5 148 433.5C148.8 433.5 149.7 433.8 150.3 434.4C151.5 435.6 151.5 437.7 150.3 439Z" fill="white"/>
<path d="M409.5 178.3C409.5 179.2 409.2 180 408.5 180.6L385.1 204C383.9 205.2 381.7 205.2 380.5 204C379.9 203.4 379.5 202.6 379.5 201.7C379.5 200.8 379.8 200 380.5 199.4L404 176C404.6 175.4 405.5 175.1 406.3 175.1C407.1 175.1 408 175.4 408.6 176C409.2 176.7 409.5 177.5 409.5 178.3Z" fill="white"/>
<path d="M365.1 224.1L360.1 229.1C358.9 230.3 356.7 230.3 355.5 229.1C354.9 228.5 354.5 227.7 354.5 226.8C354.5 225.9 354.8 225.1 355.5 224.5L360.5 219.5C361.1 218.9 362 218.5 362.8 218.5C363.6 218.5 364.5 218.8 365.1 219.5C366.4 220.8 366.4 222.8 365.1 224.1Z" fill="white"/>
<path d="M433.3 155.9L428.3 160.9C427.1 162.1 424.9 162.1 423.7 160.9C422.4 159.6 422.4 157.6 423.7 156.3L428.7 151.3C429.3 150.7 430.2 150.3 431 150.3C431.8 150.3 432.7 150.6 433.3 151.3C434.5 152.6 434.5 154.7 433.3 155.9Z" fill="white"/>
</g>
<defs>
<clipPath id="clip0_1_284">
<rect width="800" height="800" fill="white"/>
</clipPath>
</defs>
</svg>
